X: 23
T: Max Hobart's Jig   [Dm]
C: Len Bittenson 2017
S: handout at Roaring Jelly practice 2018-11-13
M: 6/8
L: 1/8
K: Dm
|:\
"Dm"DA,D DA,D | DA,F "A"E2E | "Dm"DA,D DFG | "(A7)"AGF "A7"E2^C |\
"Dm"DA,D DA,D | DA,F "A7"E2E | "Dm"DA,D DFG | "A7"AE^C [1 "Dm"D3 :|[2 "Dm"DFA |]
|:\
"Gm"BGB BGB | "F"AFA AFA | "C"GEG GEG | "Dm"FA,D FGA |\
"Bb"BGB BGB | "F"AFA AFA | "A7"GE^C A,EG | FE^C [1 "Dm"DFA :|[2 "Dm"D3 |]

%%sep 1 1 500

